X: 10682
T: COTILLION No. 1. tune 2
C:
%R: hornpipe, reel
B: Elias Howe "The Musician's Companion" Part 1 1842 p.68 #2
S: http://imslp.org/wiki/The_Musician's_Companion_(Howe,_Elias)
Z: 2015 John Chambers <jc:trillian.mit.edu>
N: Removed extra bar line from the middle of the first bar.
N: The ">" accents in bars 10,12 look more like diminuendo signs, but the ">"s in bar 9, 11 are a bit longer.
M: 2/4
L: 1/16
K: G
% - - - - - - - - - - - - - - - - - - - - - - - - -
B>c |\
d>Bc>A G>gf>e | (ed)d>d d2c>B | A>ce>d c>BA>G | F>AG>E D>AB>c |\
d>Bc>A G>gf>e | e>dd>d d>gf>e | d>Bc>A B>GA>F | G2B2G2 H|]
|: c>B |\
B>A "_>"A4 B>c | e>d"_>"d2- d>g[dB]>B | B>A "_>"A4 B>c | e>d"_>"d2- d>gb>a |\
g>bf>a e>gd>f | c>eB>d A>cG>B | A2A>B A>GA>B | G2B2"^D.C."G2 :|
% - - - - - - - - - - Dance description - - - - - - - - - -
%%begintext align
%% First 2 forward and back,
%% cross over,
%% chassa de chassa --
%% cross back,
%% balance and turn partners --
%% the other couples the same.
%%endtext
% - - - - - - - - - - - - - - - - - - - - - - - - -
%%sep 1 1 300


